X: 9
T: Boys Of Malin, The
Z: birlibirdie
S: https://thesession.org/tunes/11#setting49826
R: reel
M: 4/4
L: 1/8
K: Dmaj
|:DEFG ADFA|BDGB AGFE|DEFG ADFA|1 BGEF G2FE:|2 BGEF GABc||
dD D/D/D FDFA|dedc BABc|dD D/D/D FDFA|GFEF GABc|
dD D/D/D FDFA|dedc B2Bc|dBBA BAGF|GBEF G2FE|
|:DAFA DAFA|DAFA G2FE|DAFA DAFA|BGEF G2FE:||

